<?xml version="1.0" encoding="UTF-8"?>
<map version="1.10" tiledversion="1.11.2" orientation="orthogonal" renderorder="left-down" width="17" height="13" tilewidth="48" tileheight="48" infinite="0" nextlayerid="8" nextobjectid="6">
 <tileset firstgid="1" source="../TSMap/collision.tsx"/>
 <layer id="1" name="Tile Layer 1" width="17" height="13">
  <data encoding="csv">
0,0,0,0,0,0,0,0,0,0,0,0,0,0,0,0,0,
0,0,0,0,0,0,0,0,0,0,0,0,0,0,0,0,0,
0,0,0,0,0,0,0,0,0,0,0,0,0,0,0,0,0,
0,0,0,0,0,0,0,0,0,0,0,0,0,0,0,0,0,
0,0,0,0,0,0,0,0,0,0,0,0,0,0,0,0,0,
0,0,0,0,0,0,0,0,0,0,0,0,0,0,0,0,0,
0,0,0,0,0,0,0,0,0,0,0,0,0,0,0,0,0,
0,0,0,0,0,0,0,0,0,0,0,0,0,0,0,0,0,
0,0,0,0,0,0,0,0,0,0,0,0,0,0,0,0,0,
0,0,0,0,0,0,0,0,0,0,0,0,0,0,0,0,0,
0,0,0,0,0,0,0,0,0,0,0,0,0,0,0,0,0,
0,0,0,0,0,0,0,0,0,0,0,0,0,0,0,0,0,
0,0,0,0,0,0,0,0,0,0,0,0,0,0,0,0,0
</data>
 </layer>
 <group id="2" name="UNDER PLAYER">
  <imagelayer id="4" name="Map">
   <image source="../TSMap/Cherry Town - Inn Room.png" width="816" height="624"/>
  </imagelayer>
  <layer id="5" name="Collision" width="17" height="13" visible="0">
   <data encoding="csv">
0,0,0,0,0,0,0,0,0,0,0,0,0,0,0,0,0,
0,0,0,0,0,0,0,0,0,0,0,0,0,0,0,0,0,
0,0,0,0,0,0,0,0,0,0,0,0,0,0,0,0,0,
0,0,0,0,1,1,1,1,1,1,1,0,0,0,0,0,0,
0,0,0,0,1,1,1,1,1,1,1,0,0,0,0,0,0,
0,0,0,0,1,1,0,0,0,1,1,0,0,0,0,0,0,
0,0,0,0,1,0,0,0,0,0,1,0,0,0,0,0,0,
0,0,0,0,1,0,0,0,0,0,1,0,0,0,0,0,0,
0,0,0,0,1,1,0,0,0,1,1,0,0,0,0,0,0,
0,0,0,0,1,1,1,0,1,1,1,0,0,0,0,0,0,
0,0,0,0,0,0,0,0,0,0,0,0,0,0,0,0,0,
0,0,0,0,0,0,0,0,0,0,0,0,0,0,0,0,0,
0,0,0,0,0,0,0,0,0,0,0,0,0,0,0,0,0
</data>
  </layer>
 </group>
 <group id="3" name="ABOVE PLAYER"/>
 <objectgroup id="6" name="Objects">
  <object id="1" name="NPC_Player" type="MapEvent" x="240" y="192" width="48" height="48">
   <properties>
    <property name="autonomous_move_delay" type="int" value="1"/>
    <property name="autonomous_move_route" value=""/>
    <property name="autonomous_move_type" value="STATIC"/>
    <property name="base_speed" type="float" value="70"/>
    <property name="character_index" type="int" value="2"/>
    <property name="initial_direction" value="DOWN"/>
    <property name="is_solid" type="bool" value="true"/>
    <property name="is_static" type="bool" value="false"/>
    <property name="script_id" value=""/>
    <property name="sprite_sheet" type="file" value="../characters/feschar_big_001.png"/>
    <property name="type" value="MapEvent"/>
    <property name="visibility_flag" value="L0_INTRO_DONE"/>
    <property name="visibility_flag_is" type="bool" value="false"/>
   </properties>
  </object>
  <object id="4" name="NPC_Boy" type="MapEvent" x="768" y="576" width="48" height="48">
   <properties>
    <property name="autonomous_move_delay" type="int" value="1"/>
    <property name="autonomous_move_route" value=""/>
    <property name="autonomous_move_type" value="STATIC"/>
    <property name="base_speed" type="float" value="90"/>
    <property name="character_index" type="int" value="1"/>
    <property name="initial_direction" value="DOWN"/>
    <property name="is_solid" type="bool" value="true"/>
    <property name="is_static" type="bool" value="false"/>
    <property name="script_id" value=""/>
    <property name="sprite_sheet" type="file" value="../characters/feschar_big_022.png"/>
    <property name="type" value="MapEvent"/>
    <property name="visibility_flag" value="L0_INTRO_DONE"/>
    <property name="visibility_flag_is" type="bool" value="false"/>
   </properties>
  </object>
 </objectgroup>
 <objectgroup id="7" name="Logic">
  <object id="3" name="Spawn" x="364.525" y="462.76">
   <point/>
  </object>
  <object id="5" name="Exit" x="336" y="480" width="47.9634" height="47.9565"/>
 </objectgroup>
</map>
